lib/brands/icons/markdown.svg

<svg xmlns="http://www.w3.org/2000/svg" fill="none" aria-hidden="true" viewBox="0 0 48 48"><g id="markdown-Icon"><g id="Group"><path id="Vector" fill="black" d="M41.2455 36.3353H6.87425C5.31737 36.3353 4 35.018 4 33.4611V14.5389C4 12.982 5.31737 11.6647 6.87425 11.6647H41.1257C42.6826 11.6647 44 12.982 44 14.5389V33.4611C44 35.018 42.8024 36.3353 41.2455 36.3353ZM6.87425 13.5808C6.39521 13.5808 5.91617 14.0599 5.91617 14.5389V33.4611C5.91617 34.0599 6.39521 34.4192 6.87425 34.4192H41.1257C41.7246 34.4192 42.0838 33.9401 42.0838 33.4611V14.5389C42.0838 13.9401 41.6048 13.5808 41.1257 13.5808C41.2455 13.5808 6.87425 13.5808 6.87425 13.5808ZM9.7485 30.5868V17.4132H13.5808L17.4132 22.2036L21.2455 17.4132H25.0778V30.5868H21.2455V23.0419L17.4132 27.8323L13.5808 23.0419V30.5868H9.7485ZM33.8204 30.5868L28.0719 24.2395H31.9042V17.4132H35.7365V24.1198H39.5689L33.8204 30.5868Z"/></g></g></svg>

<svg xmlns="http://www.w3.org/2000/svg" fill="none" aria-hidden="true" viewBox="0 0 48 48"><path fill="#000" d="M41.245 36.335H6.876C5.316 36.335 4 35.018 4 33.461V14.54c0-1.557 1.317-2.874 2.874-2.874h34.252c1.557 0 2.874 1.317 2.874 2.874v18.92c0 1.557-1.198 2.874-2.755 2.874ZM6.876 13.581c-.48 0-.959.479-.959.958V33.46c0 .599.48.958.958.958h34.252c.599 0 .958-.479.958-.958V14.54c0-.599-.48-.958-.958-.958H6.874Zm2.873 17.006V17.413h3.833l3.832 4.79 3.832-4.79h3.833v13.174h-3.832v-7.545l-3.833 4.79-3.832-4.79v7.545H9.749Zm24.072 0-5.748-6.348h3.832v-6.826h3.832v6.707h3.833l-5.749 6.467Z"/></svg>
